src/assets/images/logo.svg

<svg width="85" height="40" viewBox="0 0 85 40" fill="none" xmlns="http://www.w3.org/2000/svg">
<path d="M24.2175 4.10239C23.8932 3.60575 23.4194 3.59149 22.8795 3.57523C22.8183 3.57339 22.7563 3.57153 22.6936 3.56893C22.6458 3.56673 22.5931 3.56758 22.538 3.56846C22.319 3.57198 22.0629 3.57609 21.9339 3.39212C21.7843 3.17883 21.7985 2.76663 21.8102 2.42635C21.8139 2.31882 21.8173 2.21841 21.8153 2.1338C21.7943 1.34332 21.7504 0.503628 21.4453 0.22292C21.2152 0.0123098 20.5268 0.041487 19.892 0.0683954C19.6862 0.0771184 19.486 0.085603 19.3089 0.085603H5.79596C5.52389 0.085603 5.23869 0.0634489 4.95847 0.0416813C4.41245 -0.000733803 3.88533 -0.0416812 3.511 0.085603C2.96775 0.271231 2.93096 1.24667 2.89633 2.16519L2.89446 2.21461C2.86538 2.97288 2.67746 3.55799 2.05465 3.49906C1.33029 3.43161 0.609497 3.41035 0.281987 4.06594C-0.10481 4.84161 -0.0250374 5.65358 0.117847 7.10792C0.138258 7.31567 0.159956 7.53652 0.181766 7.77225H24.4264C24.4403 7.59995 24.455 7.42986 24.4696 7.26253C24.5831 5.95406 24.682 4.81402 24.2175 4.10239Z" fill="#8047F8"/>
<path fill-rule="evenodd" clip-rule="evenodd" d="M2.06987 9.21467C2.44852 14.3395 2.82304 19.4701 3.19757 24.6009L3.1978 24.604C3.40115 27.3898 3.60451 30.1757 3.80853 32.9606H4.58212C4.63483 33.3965 4.69515 33.9347 4.75874 34.5021C4.88783 35.6539 5.03044 36.9264 5.15034 37.7083H5.2359C6.02387 37.42 11.4712 35.0916 11.4736 25.8218C11.4726 25.7954 11.4735 25.7689 11.4762 25.7427H10.1304C10.0653 25.7421 10.0021 25.7203 9.9507 25.6808C9.89927 25.6413 9.86241 25.5861 9.84577 25.5238C9.71463 25.1999 9.60888 24.8664 9.52948 24.5264C8.73777 24.9736 8.10906 25.6564 7.73296 26.4775C7.37594 25.6365 7.32921 24.6983 7.60093 23.8267C7.87266 22.9551 8.44556 22.2057 9.21952 21.7093C9.22949 19.0043 10.2423 16.3968 12.0661 14.3804L12.0946 14.3553C12.1476 14.3095 12.2155 14.284 12.2859 14.2834C12.3266 14.2838 12.3668 14.2925 12.4039 14.309C12.4415 14.3257 12.4751 14.35 12.5026 14.3804C14.3478 16.3996 15.3552 19.0321 15.3239 21.7531C16.1123 22.2356 16.6969 22.9845 16.9691 23.8608C17.2413 24.7371 17.1827 25.6813 16.8042 26.5181C16.4301 25.6957 15.8008 25.0123 15.0076 24.5671C14.9592 24.8966 14.8699 25.219 14.7419 25.527C14.6977 25.6583 14.6091 25.7427 14.5205 25.7427H13.0853C13.0876 25.7584 13.0892 25.7742 13.0901 25.7901L13.0907 25.7937V25.8014C13.0912 25.815 13.0912 25.8287 13.0907 25.8424C13.1104 35.3783 18.902 37.5428 19.3902 37.7083H19.5572C19.5998 36.9572 19.7386 35.9208 19.8739 34.9104C19.9671 34.2142 20.0587 33.5302 20.116 32.9606H20.8985C21.149 29.4527 21.4066 25.9546 21.6642 22.4564L21.6644 22.4545L21.6645 22.4535C21.994 17.9789 22.3235 13.5042 22.6381 9.0087H2.11998C2.06092 9.02024 2.06495 9.11685 2.06987 9.21467ZM12.2859 14.2834L12.2844 14.2834H12.2875L12.2859 14.2834Z" fill="#8047F8"/>
<path d="M31.3088 5.69821C31.3088 4.43316 31.7446 3.45274 32.6162 2.75696C33.5037 2.04537 34.8349 1.68958 36.6099 1.68958C37.7827 1.68958 38.7811 1.80027 39.6052 2.02165V5.29498C38.7177 5.02615 37.8381 4.89174 36.9665 4.89174C36.1107 4.89174 35.556 4.99453 35.3025 5.2001C35.0489 5.38985 34.9221 5.67449 34.9221 6.05401V14.0238C34.9221 14.7829 35.5164 15.1624 36.705 15.1624C37.9094 15.1624 38.8999 15.0438 39.6765 14.8066V18.0088C38.8207 18.246 37.7827 18.3646 36.5624 18.3646C34.7874 18.3646 33.4641 18.0167 32.5925 17.3209C31.7367 16.6251 31.3088 15.6447 31.3088 14.3796V5.69821Z" fill="#403937"/>
<path d="M46.6205 7.95159C46.6205 7.35069 46.2877 7.05024 45.6221 7.05024C44.9564 7.05024 44.6236 7.35069 44.6236 7.95159V14.5457C44.6236 15.1466 44.9564 15.447 45.6221 15.447C46.2877 15.447 46.6205 15.1466 46.6205 14.5457V7.95159ZM41.1054 7.83299C41.1054 6.63119 41.4778 5.69821 42.2227 5.03406C42.9834 4.35409 44.1165 4.01411 45.6221 4.01411C47.1276 4.01411 48.2528 4.35409 48.9977 5.03406C49.7584 5.69821 50.1387 6.63119 50.1387 7.83299V14.6643C50.1387 15.8661 49.7584 16.807 48.9977 17.4869C48.2528 18.1511 47.1276 18.4832 45.6221 18.4832C44.1165 18.4832 42.9834 18.1511 42.2227 17.4869C41.4778 16.807 41.1054 15.8661 41.1054 14.6643V7.83299Z" fill="#403937"/>
<path d="M52.4492 4.08527C52.4492 1.41284 53.8597 0.0766322 56.6806 0.0766322C57.0451 0.0766322 57.4809 0.116165 57.9881 0.195231V2.94672C57.7345 2.9151 57.4968 2.89928 57.2749 2.89928C56.4667 2.89928 56.0626 3.2788 56.0626 4.03783V4.25131H57.9881V7.05024H56.0626V18.246H52.4492V7.05024H51.0942V4.25131H52.4492V4.08527Z" fill="#403937"/>
<path d="M59.4601 4.08527C59.4601 1.41284 60.8705 0.0766322 63.6915 0.0766322C64.056 0.0766322 64.4918 0.116165 64.9989 0.195231V2.94672C64.7454 2.9151 64.5076 2.89928 64.2858 2.89928C63.4775 2.89928 63.0734 3.2788 63.0734 4.03783V4.25131H64.9989V7.05024H63.0734V18.246H59.4601V7.05024H58.1051V4.25131H59.4601V4.08527Z" fill="#403937"/>
<path d="M65.8291 14.261V7.83299C65.8291 6.63119 66.2015 5.69821 66.9464 5.03406C67.6912 4.35409 68.8164 4.01411 70.322 4.01411C73.2221 4.01411 74.6722 5.28707 74.6722 7.83299V12.6481H69.276V13.9764C69.276 14.4508 69.4028 14.7908 69.6564 14.9964C69.9258 15.1861 70.5042 15.281 71.3917 15.281C72.295 15.281 73.2776 15.1229 74.3394 14.8066V17.9376C73.2301 18.2381 72.0415 18.3883 70.7736 18.3883C67.4773 18.3883 65.8291 17.0125 65.8291 14.261ZM69.276 9.92033H71.3679V7.88043C71.3679 7.27953 71.0193 6.97908 70.322 6.97908C69.6247 6.97908 69.276 7.27953 69.276 7.88043V9.92033Z" fill="#403937"/>
<path d="M76.09 14.261V7.83299C76.09 6.63119 76.4624 5.69821 77.2073 5.03406C77.9521 4.35409 79.0773 4.01411 80.5829 4.01411C83.483 4.01411 84.9331 5.28707 84.9331 7.83299V12.6481H79.5369V13.9764C79.5369 14.4508 79.6637 14.7908 79.9173 14.9964C80.1867 15.1861 80.7651 15.281 81.6526 15.281C82.5559 15.281 83.5385 15.1229 84.6003 14.8066V17.9376C83.491 18.2381 82.3024 18.3883 81.0345 18.3883C77.7382 18.3883 76.09 17.0125 76.09 14.261ZM79.5369 9.92033H81.6288V7.88043C81.6288 7.27953 81.2802 6.97908 80.5829 6.97908C79.8856 6.97908 79.5369 7.27953 79.5369 7.88043V9.92033Z" fill="#403937"/>
<path d="M37.0305 26.9797C37.0305 25.8119 36.4128 25.2281 35.1775 25.2281H33.2075V35.874H35.1775C36.4128 35.874 37.0305 35.2771 37.0305 34.0834V26.9797ZM31.8226 24.0214H35.2555C36.2958 24.0214 37.0825 24.2874 37.6156 24.8194C38.1488 25.3513 38.4154 26.065 38.4154 26.9602V34.1224C38.4154 35.0436 38.1553 35.7702 37.6351 36.3022C37.115 36.8341 36.3348 37.1001 35.2945 37.1001H31.8226V24.0214Z" fill="#403937"/>
<path d="M40.6944 34.2781V28.8675C40.6944 27.9463 40.9545 27.2132 41.4746 26.6683C42.0078 26.1104 42.8075 25.8314 43.8737 25.8314C44.94 25.8314 45.7267 26.1104 46.2339 26.6683C46.754 27.2132 47.0141 27.9463 47.0141 28.8675V32.254H42.0598V34.2197C42.0598 34.8036 42.2418 35.2382 42.6059 35.5237C42.97 35.8091 43.5357 35.9518 44.3029 35.9518C45.0701 35.9518 45.8633 35.8351 46.6825 35.6015V36.886C46.0323 37.0936 45.2586 37.1974 44.3614 37.1974C41.9167 37.1974 40.6944 36.2243 40.6944 34.2781ZM42.0598 31.1057H45.6877V28.8675C45.6877 27.6479 45.0831 27.0381 43.8737 27.0381C42.6644 27.0381 42.0598 27.6479 42.0598 28.8675V31.1057Z" fill="#403937"/>
<path d="M49.3849 23.0872H50.7697V37.1001H49.3849V23.0872Z" fill="#403937"/>
<path d="M54.1438 24.7804C53.5847 24.7804 53.3051 24.482 53.3051 23.8852C53.3051 23.2883 53.5847 22.9899 54.1438 22.9899C54.716 22.9899 55.002 23.2883 55.002 23.8852C55.002 24.482 54.716 24.7804 54.1438 24.7804ZM53.4611 26.1039H54.846V37.1001H53.4611V26.1039Z" fill="#403937"/>
<path d="M61.9846 26.026H63.3889L60.9313 37.1001H58.9808L56.5231 26.026H57.947L59.0198 31.1057L59.9755 36.127C60.3656 33.9732 61.0353 30.6062 61.9846 26.026Z" fill="#403937"/>
<path d="M64.8663 34.2781V28.8675C64.8663 27.9463 65.1264 27.2132 65.6465 26.6683C66.1796 26.1104 66.9794 25.8314 68.0456 25.8314C69.1119 25.8314 69.8986 26.1104 70.4058 26.6683C70.9259 27.2132 71.186 27.9463 71.186 28.8675V32.254H66.2317V34.2197C66.2317 34.8036 66.4137 35.2382 66.7778 35.5237C67.1419 35.8091 67.7075 35.9518 68.4747 35.9518C69.2419 35.9518 70.0352 35.8351 70.8544 35.6015V36.886C70.2042 37.0936 69.4305 37.1974 68.5333 37.1974C66.0886 37.1974 64.8663 36.2243 64.8663 34.2781ZM66.2317 31.1057H69.8596V28.8675C69.8596 27.6479 69.255 27.0381 68.0456 27.0381C66.8363 27.0381 66.2317 27.6479 66.2317 28.8675V31.1057Z" fill="#403937"/>
<path d="M77.1457 25.9676H77.6333V27.2911H76.9701C76.502 27.2911 76.0794 27.4143 75.7023 27.6609C75.5853 27.7387 75.3317 27.9139 74.9416 28.1864V37.1001H73.5567V26.026H74.8831V26.8629C74.9221 26.837 75.0196 26.7656 75.1757 26.6488C75.3447 26.5321 75.4422 26.4672 75.4682 26.4542C75.5073 26.4283 75.5918 26.3764 75.7218 26.2985C75.8649 26.2207 75.9689 26.1752 76.0339 26.1623C76.1119 26.1363 76.2159 26.1039 76.346 26.065C76.541 26.0001 76.8076 25.9676 77.1457 25.9676Z" fill="#403937"/>
<path d="M83.5668 26.026H84.9517L81.9089 40H80.5826L81.1872 37.1001H80.5045L78.0859 26.026H79.4903L80.6606 31.5339L81.5188 36.127C81.7789 34.596 82.0649 33.0649 82.377 31.5339L83.5668 26.026Z" fill="#403937"/>
</svg>

<svg xmlns="http://www.w3.org/2000/svg" width="85" height="40" fill="none"><path fill="#8047F8" d="M24.218 4.102c-.325-.496-.799-.51-1.338-.527l-.186-.006c-.048-.002-.1-.001-.156 0-.219.003-.475.007-.604-.177-.15-.213-.136-.625-.124-.966.004-.107.007-.208.005-.292-.02-.79-.065-1.63-.37-1.911-.23-.21-.918-.182-1.553-.155a14.39 14.39 0 0 1-.583.018H5.796c-.272 0-.557-.023-.838-.044-.546-.043-1.073-.084-1.447.044-.543.185-.58 1.16-.615 2.08l-.002.049c-.029.758-.217 1.343-.84 1.284C1.33 3.432.61 3.41.283 4.066c-.387.776-.307 1.588-.164 3.042l.064.664h24.244l.044-.51c.113-1.308.212-2.448-.252-3.16Z"/><path fill="#8047F8" fill-rule="evenodd" d="M2.07 9.215c.379 5.124.753 10.255 1.128 15.386v.003l.61 8.357h.774c.053.436.113.974.177 1.541.129 1.152.271 2.424.391 3.206h.086c.788-.288 6.235-2.616 6.238-11.886a.564.564 0 0 1 .002-.08H10.13a.3.3 0 0 1-.284-.218 6.745 6.745 0 0 1-.317-.998 4.3 4.3 0 0 0-1.796 1.951 3.848 3.848 0 0 1-.132-2.65 3.895 3.895 0 0 1 1.619-2.118 10.985 10.985 0 0 1 2.846-7.329l.029-.025a.297.297 0 0 1 .19-.072.298.298 0 0 1 .218.097 10.744 10.744 0 0 1 2.82 7.373 3.792 3.792 0 0 1 1.646 2.108c.272.876.214 1.82-.165 2.657a4.264 4.264 0 0 0-1.796-1.95c-.049.329-.138.651-.266.959-.044.131-.133.216-.222.216h-1.435a.536.536 0 0 1 .005.047v.011a.56.56 0 0 1 0 .041c.02 9.536 5.812 11.7 6.3 11.866h.167c.043-.75.182-1.787.317-2.798.093-.696.185-1.38.242-1.95h.782c.251-3.507.509-7.005.766-10.504v-.002c.33-4.475.66-8.95.974-13.445H2.12c-.06.011-.055.108-.05.206Zm10.216 5.068h-.002.003-.001Z" clip-rule="evenodd"/><path fill="#403937" d="M31.309 5.698c0-1.265.436-2.245 1.307-2.941.888-.712 2.219-1.067 3.994-1.067 1.173 0 2.171.11 2.995.332v3.273a9.066 9.066 0 0 0-2.638-.403c-.856 0-1.411.103-1.664.308-.254.19-.38.474-.38.854v7.97c0 .759.593 1.138 1.782 1.138 1.204 0 2.195-.118 2.971-.355v3.202c-.855.237-1.893.356-3.114.356-1.775 0-3.098-.348-3.97-1.044-.855-.696-1.283-1.676-1.283-2.941V5.698ZM46.62 7.952c0-.601-.332-.902-.998-.902-.666 0-.998.3-.998.902v6.594c0 .6.332.901.998.901.666 0 .998-.3.998-.901V7.952Zm-5.515-.119c0-1.202.373-2.135 1.118-2.799.76-.68 1.894-1.02 3.4-1.02 1.505 0 2.63.34 3.375 1.02.76.664 1.14 1.597 1.14 2.799v6.831c0 1.202-.38 2.143-1.14 2.823-.745.664-1.87.996-3.376.996-1.505 0-2.639-.332-3.4-.996-.744-.68-1.117-1.62-1.117-2.823V7.833ZM52.45 4.085c0-2.672 1.41-4.008 4.23-4.008.365 0 .8.04 1.308.118v2.752a5.782 5.782 0 0 0-.713-.048c-.808 0-1.212.38-1.212 1.139v.213h1.925v2.8h-1.925v11.195h-3.614V7.05h-1.355V4.251h1.355v-.166ZM59.46 4.085c0-2.672 1.41-4.008 4.231-4.008.365 0 .8.04 1.308.118v2.752a5.78 5.78 0 0 0-.713-.048c-.809 0-1.213.38-1.213 1.139v.213H65v2.8h-1.926v11.195H59.46V7.05h-1.355V4.251h1.355v-.166ZM65.83 14.261V7.833c0-1.202.371-2.135 1.116-2.799.745-.68 1.87-1.02 3.376-1.02 2.9 0 4.35 1.273 4.35 3.819v4.815h-5.396v1.328c0 .475.127.815.38 1.02.27.19.848.285 1.736.285.903 0 1.886-.158 2.947-.474v3.13c-1.109.301-2.297.451-3.565.451-3.297 0-4.945-1.376-4.945-4.127Zm3.446-4.34h2.092V7.88c0-.601-.349-.902-1.046-.902-.697 0-1.046.3-1.046.901v2.04ZM76.09 14.261V7.833c0-1.202.372-2.135 1.117-2.799.745-.68 1.87-1.02 3.376-1.02 2.9 0 4.35 1.273 4.35 3.819v4.815h-5.396v1.328c0 .475.127.815.38 1.02.27.19.848.285 1.736.285.903 0 1.885-.158 2.947-.474v3.13c-1.109.301-2.298.451-3.566.451-3.296 0-4.944-1.376-4.944-4.127Zm3.447-4.34h2.092V7.88c0-.601-.349-.902-1.046-.902-.697 0-1.046.3-1.046.901v2.04ZM37.03 26.98c0-1.168-.617-1.752-1.852-1.752h-1.97v10.646h1.97c1.235 0 1.853-.597 1.853-1.79V26.98Zm-5.207-2.959h3.432c1.04 0 1.828.266 2.36.798.534.532.8 1.246.8 2.141v7.162c0 .922-.26 1.648-.78 2.18-.52.532-1.3.798-2.34.798h-3.472V24.021ZM40.694 34.278v-5.41c0-.922.26-1.655.78-2.2.534-.558 1.334-.837 2.4-.837 1.066 0 1.853.28 2.36.837.52.545.78 1.278.78 2.2v3.386H42.06v1.966c0 .584.182 1.018.546 1.304.364.285.93.428 1.697.428s1.56-.117 2.38-.35v1.284c-.65.208-1.424.311-2.322.311-2.444 0-3.667-.973-3.667-2.919Zm1.366-3.172h3.628v-2.239c0-1.22-.605-1.829-1.814-1.829-1.21 0-1.814.61-1.814 1.83v2.238ZM49.385 23.087h1.385V37.1h-1.385V23.087ZM54.144 24.78c-.56 0-.839-.298-.839-.895s.28-.895.839-.895c.572 0 .858.298.858.895s-.286.895-.858.895Zm-.683 1.324h1.385V37.1h-1.385V26.104ZM61.985 26.026h1.404L60.93 37.1h-1.95l-2.458-11.074h1.424l1.073 5.08.955 5.021c.39-2.154 1.06-5.52 2.01-10.101ZM64.866 34.278v-5.41c0-.922.26-1.655.78-2.2.534-.558 1.333-.837 2.4-.837 1.066 0 1.853.28 2.36.837.52.545.78 1.278.78 2.2v3.386h-4.954v1.966c0 .584.182 1.018.546 1.304.364.285.93.428 1.697.428s1.56-.117 2.38-.35v1.284c-.65.208-1.425.311-2.322.311-2.444 0-3.667-.973-3.667-2.919Zm1.366-3.172h3.628v-2.239c0-1.22-.605-1.829-1.814-1.829-1.21 0-1.814.61-1.814 1.83v2.238ZM77.146 25.968h.487v1.323h-.663c-.468 0-.89.123-1.268.37a53.1 53.1 0 0 0-.76.525V37.1h-1.385V26.026h1.326v.837c.04-.026.137-.097.293-.214a8.462 8.462 0 0 1 .546-.35c.143-.078.247-.124.312-.137.078-.026.182-.058.312-.097.195-.065.462-.097.8-.097ZM83.567 26.026h1.385L81.909 40h-1.326l.604-2.9h-.683l-2.418-11.074h1.404l1.17 5.508.859 4.593c.26-1.531.546-3.062.858-4.593l1.19-5.508Z"/></svg>
